X: 100354
P: AERIAL QUADRILLE Part 1.
M: 6/8
L: 1/8
K: Bb
uF !segno!|\
(.=Ez.F) (.Bz.c) | d3- dBc | d3- de=e | f3- f(=ef) |\
a3- ag=e | g3- gfe | (d2c) (e2d) | B2z vb2 ||
[K:F] uc |\
{d}c=Bc fef | (.ez.d) (.bz.a) | gfe dBd | c3 (A3B) |\
{d}c=Bc fef | d^cd bag | fed cBG | FFF FF "_D.C."!segno!||
uc "^*"|\
.cz .f .az .g | .gz .f .=ez .f | (g2f) gab | c'cc ccc |\
.cz .f .az .g | .gz .f .=ez .d | (c=Bc) (a2g) | f3- f2 "^D.C."|]


